X:1
T:Travelling
T:Travelling
T:James Spiteri
C:James Spiteri
%%score { 1 | 2 }
L:1/8
Q:1/4=115
M:4/4
K:Gb
V:1 treble nm="Piano" snm="Pno."
V:2 treble 
V:1
"^\n"!p!!>(! BeBe BeBe | BeBe BeBe | BeBe BeBe!>)! | Be!tenuto!gB !tenuto!fB!tenuto!eB | %4
!<(! BeBe BeBe!<)! | B!mf!ebB aBgB | fBeB eBeB | %7
!>(! !tenuto!fB"^rit."!tenuto!gB !tenuto!bBaB!>)! ||"^a tempo" BeBe BeBe | %9
 BB/e/ !>!bB/e/ !>!aB/e/ !>!d'B/e/ | !tenuto!c'BeB !tenuto!bBeB | !tenuto!aBeB gBfB | %12
"^rit." eGBe fGBe | gGBe !arpeggio![Beb]4 ||!mp!"^a tempo" z8 | z8 | z f/g/ b6 | z8 | %18
 z f/g/ a4- af/g/ |!mf! f4 z4 |!<(! z2 [fd']2!<)!!f!!>(! [ec']2 [db]2!>)! |!mf! [db]8 | %22
 z d/f/ gf/g/ bf/g/ d'f/g/ | e8 |!>(! d4 [Af]4!>)! |!p! [Ge]8 |!<(! z8!<)! | %27
!f! [fd']3 [ec']- [ec'] [db]2 [db]- | [db] [da]2 [da]- [da] g2 [da]- | [da] [db]2 [db]- [db]4 | %30
 z4 z !tenuto!B3 | [fd']3 [ec']- [ec'] [db]2 [db]- | [db]3 [ff']- [ff'] [ff']3 | %33
!8va(! [ff']3 [ee']- [ee'] [ff']2 [gg']- |!<(!!<(! [gg'] [aa']2 [bb']- [bb'] [d'd'']3!<)!!<)! | %35
!ff! [e'e'']3 [d'd'']- [d'd''] [g'g'']2 [g'g'']- | %36
 [g'g''] [f'f'']2 [f'f'']- [f'f''] [e'e'']2 [e'e'']- |!mf!!>(! [e'e'']8!8va)! | z8 | z8 | %40
 z4 z3!>)!!p! B- || B8 | F8 | A8 |!<(! c3 B-!<)!!>(! B2 AB-!>)! | B8 | d3 F- F4 | E8 | %48
 D4!>(! !tenuto!F4 | E8!>)! | z8 || z!p! d e2 d g3 | z d f2 d f3 |!<(! z g d2 g d3!<)! | %54
 z!mp! !>!a d2 !>!a d2 !>!f- | fdeB d g2 B- | BBfB d f2 B- | Bg d2 g d2 B- | Ba d2 a d2 !>!f- | %59
!>(! f3 e-!>)! e4 | z8 ||!mp!!8va(! [f'd'']3 !>![e'c'']- [e'c''] [d'b']2 [d'b']- | %62
 [d'b'] [d'a']2 [d'a']- [d'a'] g'2 [d'a']- | [d'a'] [d'b']2 [d'b']- [d'b'] [aa']2 [aa']- | %64
 [aa'] [gg']2 [bb']- [bb'] [d'd'']3!8va)! |!f! [fd']3 [ec']- [ec'] [db]2 [db]- | %66
 [db]3 [ff']- [ff'] [ff']3 |!8va(! [ff']3 [ee']- [ee'] [ff']2 [gg']- | %68
 [gg'] [aa']2 [bb']- [bb'] [d'd'']3 |!ff! [e'e'']3 [d'd'']- [d'd''] [g'g'']2 [g'g'']- | %70
 [g'g''] [f'f'']2 [f'f'']- [f'f''] [a'a'']2 [a'a'']- | [a'a''] [g'g'']2 [g'g'']- [g'g'']4!8va)! | %72
 z8 ||!mf! E3 D- D4 | F3 D- D4 | !>!F3 G- G2 !>!F2 | F E3 B,2 D2 | E3 D- D4 | F3 D- D4 | %79
 !arpeggio![Ff]3 [Gg]- [Gg]2 [dd']2- | [dd']8 | [ee']3 [dd']- [dd']4 | [ff']3 [dd']- [dd']4 | %83
!8va(! [ff']3 [gg']- [gg']2 [ff']2- | [ff'] [ee']3 [Bb]2 [dd']2 | [ee']3 [cc']- [cc']4 | %86
 [ff']3 [dd']- [dd']4 |!mp!!>(! [ff']3 !arpeggio![gg']- [gg']2 !arpeggio![d'd'']2-!>)! | %88
"^rit." [d'd'']8!8va)! ||"^a tempo"!p! e8 | f8 | g3 f- f2 ed- | d8 | z B/d/ gf/g/ bf/g/ d'f/g/ | %94
 e3 d- d4 | g3 f- f4 | e8 | z B/d/ gf/g/ bf/g/ d'f/g/ | e3 d- d b2 b- | b a2 a- a g2 g- | %100
"^poco rit." g f2 f- fede ||"^a tempo"!p! BeBe BeBe | Be!tenuto!gB !tenuto!fB!tenuto!eB | %103
 BeBe BeBe | BebB aBgB | !tenuto!fBeB eBeB |"^poco rit."!>(! fBgB bBaB!>)! | %107
"^a tempo"!mp! BeBe BeBe | BB/e/ !>!bB/e/ !>!aB/e/ !>!d'2 |"^rit." [ee']4!<(! [dd']4!<)! | %110
 [gg']4!>(! [ff']4!>)! |!p! !fermata![ege']8 |] %112
V:2
!ped! EGEG EGEG!ped-up! | EGEG EGEG | DGDG DGDG | DGDG DGDG | CGCG CGCG | CGCG CGCG | DGDG DGDG | %7
 D8 || EGEG EGEG | EGEG EGEG | CGCG CGCG | DGDG DGDG | E8- | E8 ||[K:bass] E,B,G,B, E,B,G,B, | %15
 E,B,G,B, E,B,G,B, | E,B,G,B, E,B,G,B, |!<(! E,B,G,B, E,B,G,B, | E,B,G,B, E,B,G,B,!<)! | %19
 !tenuto!C,B,G,B, !tenuto!C,B,G,B, | !tenuto!C,B,G,B, !tenuto!C,B,G,B, | E,B,G,B, E,B,G,B, | %22
 E,B,G,B, E,B,G,B, | C,B,G,B, C,B,G,B, | D,A,F,A, D,A,F,A, | E,B,G,B, E,B,G,B, | %26
!ped! E,B,G,D B,FDG!ped-up! | C,E,G,C- C E2 D | D,F,A,D- D F2 E | %29
 E,G,B,!tenuto!F- F !tenuto!E2 !tenuto!D- | D !tenuto!E2 !tenuto!F- F D3 | C,E,G,C- C E2 D | %32
 D,F,A,D- D F2 E | E,G,B,D- D E2[K:treble] F- | F A2 B- B d3 | C,E,G,C- C E2 D | D,F,A,D- D F2 E | %37
!ped! E,G,B,D- DG,B,E- | EG,DF- FG,B,E!ped-up! |!ped! E,G,B,D- DG,B,E- | EG,DF- FG, B,2!ped-up! || %41
 E,B,G,B, E,B,G,B, | D,B,F,B, D,B,F,B, | C,G,E,G, C,G,E,G, | D,A,F,A, D,A,F,A, | %45
 E,B,G,B, E,B,G,B, | D,B,F,B, D,B,F,B, | C,G,E,G, C,G,E,G, | D,A,F,A, D,A,F,A, | %49
 E,B,G,B, E,B,G,B,- | B,B,G,B,- B,B,G,B, || E,B,G,B, E,B,G,B, | D,B,F,B, D,B,F,B, | %53
 C,G,E,G, C,G,E,G, | D,A,F,A, D,A,F,A, | E,B,G,B, E,B,G,B, | D,B,F,B, D,B,F,B, | %57
!ped! C,G,E,G, C,G,E,G,!ped-up! |!ped! D,A,F,A, D,A,F,A,!ped-up! | E,B,G,B, E,B,G,B, | %60
!ped! E,B,G,D B,FDG!ped-up! || CEGc- c !tenuto!e2 d | DFAd- d !tenuto!f2 e | EGBf- f e2 d- | %64
 d e2 f- f [db]3 | C,E,G,C- C E2 D | D,F,A,D- D F2 E | E,G,B,D- D E2 F- | F[K:treble] A2 B- B d3 | %69
 C,E,G,C- C E2 D | D,F,A,D- D F2 E | E,G,B,[K:treble]F- F E2 D- |!<(! D E2 F- F2 B2!<)! || %73
 !>!C,G,E,G, !>!C,G,E,G, | D,A,F,A, D,A,F,A, | E,B,G,B, E,B,G,B, | E,B,G,B, E,B,G,B, | %77
 C,G,E,G, C,G,E,G, | D,A,F,A, D,A,F,A, | E,B,G,B, E,B,G,B, | E,B,G,B, E,B,G,B, | %81
 C,G,E,G, C,G,E,G, | D,A,F,A, D,A,F,A, | E,B,G,B, E,B,G,B, | E,B,G,B, E,B,G,B, | %85
 C,G,E,G, C,G,E,G, | D,A,F,A, D,A,F,A, | E,B,G,B, E,B,G,B, |!ped! E,B,G,D B,FDG!ped-up! || %89
 EGEG EGEG | DGDG- G G2 G | CGEG CGEG | DAFA- AAFA | EBGB EBGB | CGEG CGEG | DAFA DAFA | %96
 EBGB EBGB | CGEG CGEG | DAFA DAFA | EBGB EBGB | EB G2 B4 || EGEG EGEG | EGEG EGEG | DGDG DGDG | %104
 DGDG DGDG | CGCG CGCG | DG- G6 | EGEG EGEG | EGEG EGEG | CGEG CGEG | DAFA DAFA | !fermata![EG]8 |] %112

